X:1
T:Black Coffee
C:Sonny Burke
L:1/8
M:C
I:linebreak $
K:Bb
"Bb7" BB (3BF_A"B7" z2 z F |"Bb7" BB (3BF_A"B7" z2 z |$"Bb7" BBBF"B7" _A_A_AF |
"Bb7" Bcde"Fm" f2"E7" B2 |"Eb7" _dG z2 z4 |"Ebm" z2 _fe"Ab7" _dB_GF |$"Dm" z8 "Eb" x4|
"Dm" z6 z d "Db7" x4|"Cm" edef"Gm" (3edB z2 |"Eb" edef"F7" eB d2 ||1$"Bb6" B8 "G7" x4|"C7" z6"F7" z F :|2
"Bb" B8 "Cm" x4|"C#o" z6 z B "Gm" x4||[K:Db]"Cø" eded"F7" e2 f2 |$"Bbm" dB z2"Eb7" z2 z B |
"Ebm" efga"D7" =a=b=a=b |"Db" _a6 z _a ||[K:B]"C#m" ffff"C7" =a=a=g=a |$"B" (3fff z2"G#m" z2 z f |
"C#m" ffff"F#7" F3 f ||[K:Bb]"Cm" ffff"F7" F3"_D.C. al 3rd end." F ||3"Bb" B8 | z8 |]

